X:1
T:[ID 1-58b]
T:[ID 1-58b]
T:Bezeichnung standardisiert: Menuett Menuet 17.
T:Urheber unbekannt Datum in der hier transkribierten schriftlichen Quelle: 1775
C:Urheber unbekannt
C:Datum in der hier transkribierten schriftlichen Quelle: 1775
L:1/8
M:3/4
K:G
V:1 treble 
V:1
 g2 B2 AB | G3 BAc | B2 DB,CA, | B,4 F2 | G2 BA B2 | F2 BA B2 | ^cedeGE | F6 :: B4 (3Bcd | %9
 c=FED E2 | ^cA c2 (3cde | dAFE F2 | FAdBcd | e2 dcBA | G2 CB,CA, | B,6 :| %16

